X:1
T:Lean on His Arms
T:Lewis Edgar Jones, 1903
T:Lean on His Arms
T:Public Domain
T:Public Domain
T:Public Domain
C:Lewis Edgar Jones, 1903
Z:Public Domain
%%score ( 1 2 ) ( 3 4 )
L:1/8
M:4/4
K:G
V:1 treble 
V:2 treble 
V:3 bass 
V:4 bass 
V:1
 [B,D]2 | [DB]3 [DB] [DB][^C^A][DB][E^c] | ([DB]3 [CA]) [B,G]2 D2 | [FA] [FA]2 [^E^G] (A2 c2) | %4
w: 1.~Just|lean up- on the arms of|Je- * sus, He’ll|you a- long, help *|
w: 2.~Just|lean up- on the arms of|Je- * sus. He’ll|en the way, bright- *|
w: 3.~Just|lean up- on the arms of|Je- * sus, O|ev- ’ry care, bring *|
w: 4.~Just|lean up- on the arms of|Je- * sus, Then|all to Him, leave *|
 [GB] [GB]2 [FA] G2 D2 | [GB]3 [GB] [GB][G^A][GB][Gc] | (B3 A) G2 [GB]2 | [Gd]3 [Fc] [GB]2 [DA]2 | %8
w: a- long If you will|love un- fail- ing, He’ll fill|your * heart with||
w: the way, Just fol- low|where He lead- eth, His gen-|tle * voice o-|on His arms, trust-|
w: ’ry care! The bur- den|seemed so heav- y, Take to|the * Lord in||
w: to Him; His heart is|love and mer- cy, His eyes|are * nev- er||
 [DG]6 z2 ||"^Refrain" [GB](GG)[G^A] (G2 GG) | [Fc][GB][DA][^CG] [DA]4 | [Fc](FF)[FB] (F2 F2) | %12
w: ||||
w: ing|in His * love; Lean * *|arms, all His mer- cies|prove; Lean * on His *|
w: ||||
w: ||||
 [Gd][Fc][GB][DA] [DB]4 | [Gd](GG)[G^c] | (G2 GG) | [Ge][Gd][Fc][GB] [EA]2 [Ec]2 | %16
w: ||||
w: ing home a- bove, Just|lean on * the|ior’s * *||
w: ||||
w: ||||
 [GB] [GB]2 [DG] [DA]2 [DF]2 | [DG]6 |] %18
w: ||
w: ||
w: ||
w: ||
V:2
 x2 | x8 | x6 D2 | x4 F4 | x4 G2 D2 | x8 | G4 G2 x2 | x8 | x8 || x B2 B4 x | x8 | x c2 c4 x | x8 | %13
w: ||help|you|trust His||song. *|||||||
w: ||bright-|en|glad- ly||bey. Lean|||on His||arms, look-||
w: ||bring|ev-|that has||prayer. *|||||||
w: ||leave|all|full of||dim. *|||||||
 x d2 x | d4 | x8 | x8 | x6 |] %18
w: |||||
w: Sav-|arms!||||
w: |||||
w: |||||
V:3
 G,2 | G,3 G, G,G,G,G, | G,4 G,2 [G,B,]2 | [D,C] [D,C]2 [D,B,] (C2 A,2) | %4
w: ~|~ ~ ~ ~ ~ ~|~ ~ ~|~ ~ ~ ~ *|
 G, [G,D]2 [D,C] [G,,B,]2 [G,B,]2 | [G,D]3 [G,D] [G,D][G,^C][G,D][G,E] | (D3 C) [G,B,]2 [G,D]2 | %7
w: ~ ~ ~ ~ ~|~ ~ ~ Lean up- on|His * arms, ful-|
 [D,B,]3 [D,A,] [D,D]2 [D,C]2 | [G,,G,B,]6 z2 || [G,D]G,G,[G,^C] G,2 G,G, | %10
w: ~ ~ ~ ~|~|Lean up- on His arms, and ~|
 [A,D][G,D][F,D][E,A,] [D,F,]4 | [D,A,]D,D,[D,^G,] D,2 D,2 | [D,B,][D,A,][D,G,][D,F,] G,4 | %13
w: ~ ~ Lean up- on|His arms, ev- er * *||
 [G,B,]G,G,[G,^A,] | G,2 G,G, | C[B,D][A,D][G,D] [C,C]2 [A,,E]2 | %16
w: |||
 [D,D] [D,D]2 [D,B,] [D,B,]2 [D,A,]2 | [G,,G,B,]6 |] %18
w: ||
V:4
 G,2 | G,3 G, G,G,G,G, | G,4 G,2 x2 | x4 D,4 | G, x7 | x8 | G,4 x4 | x8 | x8 || x D2 D4 x | x8 | %11
w: ~|~ ~ ~ ~ ~ ~|~ ~|~|~||ly|||~ ~||
 x A,2 A,4 x | x4 G,4 | x B,2 x | B,4 | C x7 | x8 | x6 |] %18
w: |||||||

